flaticon/symbols/year.svg

<svg xmlns="http://www.w3.org/2000/svg" width="32" height="32" viewBox="0 0 24 24">
    <path d="M 22.496094 0.25 L 1.503906 0.25 C 0.675781 0.25 0 0.925781 0 1.753906 L 0 22.246094 C 0 23.074219 0.675781 23.75 1.503906 23.75 L 22.496094 23.75 C 23.324219 23.75 24 23.074219 24 22.246094 L 24 1.753906 C 24 0.925781 23.324219 0.25 22.496094 0.25 Z M 23 22.246094 C 23 22.523438 22.773438 22.75 22.496094 22.75 L 1.503906 22.75 C 1.226562 22.75 1 22.523438 1 22.246094 L 1 1.753906 C 1 1.476562 1.226562 1.25 1.503906 1.25 L 22.496094 1.25 C 22.773438 1.25 23 1.476562 23 1.753906 Z M 23 22.246094"/>
    <path d="M 11.5 2.25 L 2 2.25 L 2 21.75 L 22 21.75 L 22 2.25 Z M 7.957031 7.5 L 11.5 3.957031 L 11.5 11.042969 Z M 10.792969 11.75 L 3.707031 11.75 L 7.25 8.207031 Z M 10.746094 12.75 L 7.25 16.0625 L 3.753906 12.75 Z M 11.5 13.410156 L 11.5 20.089844 L 7.976562 16.75 Z M 12.5 13.410156 L 16.023438 16.75 L 12.5 20.089844 Z M 13.253906 12.75 L 20.246094 12.75 L 16.75 16.0625 Z M 13.207031 11.75 L 16.75 8.207031 L 20.292969 11.75 Z M 12.5 11.042969 L 12.5 3.957031 L 16.042969 7.5 Z M 7.25 6.792969 L 3.707031 3.25 L 10.792969 3.25 Z M 6.542969 7.5 L 3 11.042969 L 3 3.957031 Z M 6.523438 16.75 L 3 20.089844 L 3 13.410156 Z M 7.25 17.4375 L 10.746094 20.75 L 3.753906 20.75 Z M 16.75 17.4375 L 20.246094 20.75 L 13.253906 20.75 Z M 17.476562 16.75 L 21 13.410156 L 21 20.089844 Z M 17.457031 7.5 L 21 3.957031 L 21 11.042969 Z M 16.75 6.792969 L 13.207031 3.25 L 20.292969 3.25 Z M 16.75 6.792969"/>
</svg>

<svg xmlns="http://www.w3.org/2000/svg" width="32" height="32" viewBox="0 0 24 24">
    <path d="M22.496.25H1.504C.676.25 0 .926 0 1.754v20.492c0 .828.676 1.504 1.504 1.504h20.992c.828 0 1.504-.676 1.504-1.504V1.754C24 .926 23.324.25 22.496.25zM23 22.246a.505.505 0 0 1-.504.504H1.504A.505.505 0 0 1 1 22.246V1.754c0-.277.227-.504.504-.504h20.992c.277 0 .504.227.504.504zm0 0"/>
    <path d="M11.5 2.25H2v19.5h20V2.25zM7.957 7.5L11.5 3.957v7.086zm2.836 4.25H3.707L7.25 8.207zm-.047 1L7.25 16.063 3.754 12.75zm.754.66v6.68l-3.523-3.34zm1 0l3.523 3.34-3.523 3.34zm.754-.66h6.992l-3.496 3.313zm-.047-1l3.543-3.543 3.543 3.543zm-.707-.707V3.957L16.043 7.5zm-5.25-4.25L3.707 3.25h7.086zm-.707.707L3 11.043V3.957zm-.02 9.25L3 20.09v-6.68zm.727.688l3.496 3.312H3.754zm9.5 0l3.496 3.312h-6.992zm.727-.688L21 13.41v6.68zm-.02-9.25L21 3.957v7.086zm-.707-.707L13.207 3.25h7.086zm0 0"/>
</svg>
